brandFactory_export/3.Masa/Apps_3Masa.svg

<?xml version="1.0" encoding="UTF-8"?>
<svg width="24px" height="24px" viewBox="0 0 24 24" version="1.1" xmlns="http://www.w3.org/2000/svg" xmlns:xlink="http://www.w3.org/1999/xlink">
    <title>3.Masa/Apps_3Masa</title>
    <g id="Symbols" stroke="none" stroke-width="1" fill="none" fill-rule="evenodd">
        <g id="3.Masa/Apps_3Masa" fill="#5CB615" fill-rule="nonzero">
            <path d="M18.5781513,0 L22.4470588,0 C23.0957983,0 23.6235294,0.527731092 23.6235294,1.17647059 L23.6235294,5.04537815 C23.6235294,5.69411765 23.0957983,6.22184874 22.4470588,6.22184874 L18.5781513,6.22184874 C17.9294118,6.22184874 17.4016807,5.69411765 17.4016807,5.04537815 L17.4016807,1.17647059 C17.4016807,0.527731092 17.9294118,0 18.5781513,0 Z M9.8789916,0 L13.7478992,0 C14.3966387,0 14.9243697,0.527731092 14.9243697,1.17647059 L14.9243697,5.04537815 C14.9243697,5.69411765 14.3966387,6.22184874 13.7478992,6.22184874 L9.8789916,6.22184874 C9.2302521,6.22184874 8.70252101,5.69411765 8.70252101,5.04537815 L8.70252101,1.17647059 C8.70252101,0.527731092 9.22689076,0 9.8789916,0 Z M1.17647059,0 L5.04537815,0 C5.69411765,0 6.22184874,0.527731092 6.22184874,1.17647059 L6.22184874,5.04537815 C6.22184874,5.69411765 5.69411765,6.22184874 5.04537815,6.22184874 L1.17647059,6.22184874 C0.527731092,6.22184874 0,5.69411765 0,5.04537815 L0,1.17647059 C0,0.527731092 0.527731092,0 1.17647059,0 Z M18.5781513,8.70252101 L22.4470588,8.70252101 C23.0957983,8.70252101 23.6235294,9.2302521 23.6235294,9.8789916 L23.6235294,13.7478992 C23.6235294,14.3966387 23.0957983,14.9243697 22.4470588,14.9243697 L18.5781513,14.9243697 C17.9294118,14.9243697 17.4016807,14.3966387 17.4016807,13.7478992 L17.4016807,9.8789916 C17.4016807,9.22689076 17.9294118,8.70252101 18.5781513,8.70252101 Z M9.8789916,8.70252101 L13.7478992,8.70252101 C14.3966387,8.70252101 14.9243697,9.2302521 14.9243697,9.8789916 L14.9243697,13.7478992 C14.9243697,14.3966387 14.3966387,14.9243697 13.7478992,14.9243697 L9.8789916,14.9243697 C9.2302521,14.9243697 8.70252101,14.3966387 8.70252101,13.7478992 L8.70252101,9.8789916 C8.70252101,9.22689076 9.22689076,8.70252101 9.8789916,8.70252101 L9.8789916,8.70252101 Z M1.17647059,8.70252101 L5.04537815,8.70252101 C5.69411765,8.70252101 6.22184874,9.2302521 6.22184874,9.8789916 L6.22184874,13.7478992 C6.22184874,14.3966387 5.69411765,14.9243697 5.04537815,14.9243697 L1.17647059,14.9243697 C0.527731092,14.9243697 0,14.3966387 0,13.7478992 L0,9.8789916 C0,9.22689076 0.527731092,8.70252101 1.17647059,8.70252101 L1.17647059,8.70252101 Z M9.8789916,17.4016807 L13.7478992,17.4016807 C14.3966387,17.4016807 14.9243697,17.9294118 14.9243697,18.5781513 L14.9243697,22.4470588 C14.9243697,23.0957983 14.3966387,23.6235294 13.7478992,23.6235294 L9.8789916,23.6235294 C9.2302521,23.6235294 8.70252101,23.0957983 8.70252101,22.4470588 L8.70252101,18.5781513 C8.70252101,17.9294118 9.22689076,17.4016807 9.8789916,17.4016807 L9.8789916,17.4016807 Z M18.5512605,17.4016807 L22.4201681,17.4016807 C23.0689076,17.4016807 23.5966387,17.9294118 23.5966387,18.5781513 L23.5966387,22.4470588 C23.5966387,23.0957983 23.0689076,23.6235294 22.4201681,23.6235294 L18.5512605,23.6235294 C17.902521,23.6235294 17.3747899,23.0957983 17.3747899,22.4470588 L17.3747899,18.5781513 C17.3747899,17.9294118 17.8991597,17.4016807 18.5512605,17.4016807 L18.5512605,17.4016807 Z M1.17647059,17.4016807 L5.04537815,17.4016807 C5.69411765,17.4016807 6.22184874,17.9294118 6.22184874,18.5781513 L6.22184874,22.4470588 C6.22184874,23.0957983 5.69411765,23.6235294 5.04537815,23.6235294 L1.17647059,23.6235294 C0.527731092,23.6235294 0,23.0957983 0,22.4470588 L0,18.5781513 C0,17.9294118 0.527731092,17.4016807 1.17647059,17.4016807 L1.17647059,17.4016807 Z" id="Apps_3Masa"></path>
        </g>
    </g>
</svg>

<svg width="24" height="24" viewBox="0 0 24 24" xmlns="http://www.w3.org/2000/svg"><path d="M18.578 0h3.87c.648 0 1.176.528 1.176 1.176v3.87c0 .648-.528 1.176-1.177 1.176h-3.869a1.178 1.178 0 01-1.176-1.177V1.176c0-.648.527-1.176 1.176-1.176zM9.88 0h3.869c.649 0 1.176.528 1.176 1.176v3.87c0 .648-.527 1.176-1.176 1.176H9.879a1.178 1.178 0 01-1.176-1.177V1.176C8.703.528 9.227 0 9.879 0zM1.176 0h3.87c.648 0 1.176.528 1.176 1.176v3.87c0 .648-.528 1.176-1.177 1.176H1.176A1.178 1.178 0 010 5.045V1.176C0 .528.528 0 1.176 0zm17.402 8.703h3.87c.648 0 1.176.527 1.176 1.176v3.869c0 .649-.528 1.176-1.177 1.176h-3.869a1.178 1.178 0 01-1.176-1.176V9.879c0-.652.527-1.176 1.176-1.176zm-8.699 0h3.869c.649 0 1.176.527 1.176 1.176v3.869c0 .649-.527 1.176-1.176 1.176H9.879a1.178 1.178 0 01-1.176-1.176V9.879c0-.652.524-1.176 1.176-1.176zm-8.703 0h3.87c.648 0 1.176.527 1.176 1.176v3.869c0 .649-.528 1.176-1.177 1.176H1.176A1.178 1.178 0 010 13.748V9.879c0-.652.528-1.176 1.176-1.176zm8.703 8.699h3.869c.649 0 1.176.527 1.176 1.176v3.87c0 .648-.527 1.176-1.176 1.176H9.879a1.178 1.178 0 01-1.176-1.177v-3.869c0-.649.524-1.176 1.176-1.176zm8.672 0h3.87c.648 0 1.176.527 1.176 1.176v3.87c0 .648-.528 1.176-1.177 1.176h-3.869a1.178 1.178 0 01-1.176-1.177v-3.869c0-.649.524-1.176 1.176-1.176zm-17.375 0h3.87c.648 0 1.176.527 1.176 1.176v3.87c0 .648-.528 1.176-1.177 1.176H1.176A1.178 1.178 0 010 22.447v-3.869c0-.649.528-1.176 1.176-1.176z" fill="#5CB615" fill-rule="nonzero"/></svg>
